images_sukapura_svg/cmd/lc_defaultbullet.svg

<svg viewBox="0 0 24 24" xmlns="http://www.w3.org/2000/svg" xmlns:xlink="http://www.w3.org/1999/xlink"><linearGradient id="a" gradientTransform="translate(-25.830508 -3.59322)" gradientUnits="userSpaceOnUse" x1="14" x2="13.79661" y1="22" y2="2.135593"><stop offset="0" stop-color="#0040dd"/><stop offset="1" stop-color="#0a84ff"/></linearGradient><linearGradient id="b" gradientUnits="userSpaceOnUse" x1="3.627119" x2="3.576271" xlink:href="#a" y1="12.381356" y2="9.940678"/><linearGradient id="c" gradientUnits="userSpaceOnUse" x1="3.830509" x2="3.677966" xlink:href="#a" y1="4.90678" y2="2.059322"/><g fill="#69696e" transform="scale(-1 1)"><rect height="1" ry=".5" width="14.999998" x="-22" y="2"/><rect height="1" ry=".392136" width="15.000005" x="-22" y="10"/><rect height="1" ry=".436441" width="15.000001" x="-22" y="18"/><rect height="1" ry=".5" width="8.999999" x="-16" y="21"/><rect height="1" ry=".5" width="8.999999" x="-16" y="13"/><rect height="1" ry=".5" width="9.000002" x="-16" y="5"/></g><g fill="url(#b)"><path d="m5 3.5a1.5 1.5 0 0 1 -1.5 1.5 1.5 1.5 0 0 1 -1.5-1.5 1.5 1.5 0 0 1 1.5-1.5 1.5 1.5 0 0 1 1.5 1.5z" fill="url(#c)"/><path d="m5 11.5a1.5 1.5 0 0 1 -1.5 1.5 1.5 1.5 0 0 1 -1.5-1.5 1.5 1.5 0 0 1 1.5-1.5 1.5 1.5 0 0 1 1.5 1.5z" fill="url(#b)"/></g><g fill="#e9e9e9" fill-opacity=".992157" transform="matrix(-1 0 0 1 0 1)"><rect height="1" ry=".5" width="14.999998" x="-22" y="2"/><rect height="1" ry=".392136" width="15.000005" x="-22" y="10"/><rect height="1" ry=".436441" width="15.000001" x="-22" y="18"/><rect height="1" ry=".5" width="8.999999" x="-16" y="21"/><rect height="1" ry=".5" width="8.999999" x="-16" y="13"/><rect height="1" ry=".5" width="9.000002" x="-16" y="5"/></g></svg>

<?xml version="1.0" encoding="UTF-8" standalone="no"?>
<svg
   xmlns:dc="http://purl.org/dc/elements/1.1/"
   xmlns:cc="http://creativecommons.org/ns#"
   xmlns:rdf="http://www.w3.org/1999/02/22-rdf-syntax-ns#"
   xmlns:svg="http://www.w3.org/2000/svg"
   xmlns="http://www.w3.org/2000/svg"
   xmlns:xlink="http://www.w3.org/1999/xlink"
   xmlns:sodipodi="http://sodipodi.sourceforge.net/DTD/sodipodi-0.dtd"
   xmlns:inkscape="http://www.inkscape.org/namespaces/inkscape"
   viewBox="0 0 24 24"
   version="1.1"
   id="svg22"
   sodipodi:docname="lc_defaultbullet.svg"
   inkscape:version="0.92.3 (unknown)">
  <metadata
     id="metadata28">
    <rdf:RDF>
      <cc:Work
         rdf:about="">
        <dc:format>image/svg+xml</dc:format>
        <dc:type
           rdf:resource="http://purl.org/dc/dcmitype/StillImage" />
      </cc:Work>
    </rdf:RDF>
  </metadata>
  <defs
     id="defs26">
    <linearGradient
       gradientTransform="translate(-25.830508,-3.5932203)"
       id="a"
       gradientUnits="userSpaceOnUse"
       x1="14"
       x2="13.79661"
       y1="22"
       y2="2.1355929">
      <stop
         offset="0"
         stop-color="#0040dd"
         id="stop2" />
      <stop
         offset="1"
         stop-color="#0a84ff"
         id="stop4" />
    </linearGradient>
    <linearGradient
       inkscape:collect="always"
       xlink:href="#a"
       id="linearGradient1257"
       gradientUnits="userSpaceOnUse"
       gradientTransform="matrix(-1,0,0,1,-29.010942,26.95119)"
       x1="-31.010942"
       y1="-4.95119"
       x2="-31.010942"
       y2="-16.951191" />
    <linearGradient
       inkscape:collect="always"
       xlink:href="#a"
       id="linearGradient860"
       x1="3.6271186"
       y1="12.381356"
       x2="3.5762713"
       y2="9.9406776"
       gradientUnits="userSpaceOnUse" />
    <linearGradient
       inkscape:collect="always"
       xlink:href="#a"
       id="linearGradient882"
       gradientUnits="userSpaceOnUse"
       x1="3.8305085"
       y1="4.9067798"
       x2="3.6779661"
       y2="2.0593216" />
  </defs>
  <sodipodi:namedview
     pagecolor="#ffffff"
     bordercolor="#666666"
     borderopacity="1"
     objecttolerance="10"
     gridtolerance="10"
     guidetolerance="10"
     inkscape:pageopacity="0"
     inkscape:pageshadow="2"
     inkscape:window-width="1366"
     inkscape:window-height="706"
     id="namedview24"
     showgrid="false"
     inkscape:zoom="13.906433"
     inkscape:cx="3.6813834"
     inkscape:cy="11.517316"
     inkscape:window-x="0"
     inkscape:window-y="0"
     inkscape:window-maximized="1"
     inkscape:current-layer="svg22" />
  <g
     fill="#69696e"
     transform="scale(-1 1)"
     id="g14">
    <rect
       height="1"
       ry=".5"
       width="14.999998"
       x="-22"
       y="2"
       id="rect2" />
    <rect
       height="1"
       ry=".392136"
       width="15.000005"
       x="-22"
       y="10"
       id="rect4" />
    <rect
       height="1"
       ry=".436441"
       width="15.000001"
       x="-22"
       y="18"
       id="rect6" />
    <rect
       height="1"
       ry=".5"
       width="8.999999"
       x="-16"
       y="21"
       id="rect8" />
    <rect
       height="1"
       ry=".5"
       width="8.999999"
       x="-16"
       y="13"
       id="rect10" />
    <rect
       height="1"
       ry=".5"
       width="9.000002"
       x="-16"
       y="5"
       id="rect12" />
  </g>
  <g
     fill="#0a84ff"
     id="g20"
     style="fill-opacity:1;fill:url(#linearGradient860)">
    <path
       style="fill:url(#linearGradient882);fill-opacity:1"
       d="M 5,3.5 A 1.5,1.5 0 0 1 3.5,5 1.5,1.5 0 0 1 2,3.5 1.5,1.5 0 0 1 3.5,2 1.5,1.5 0 0 1 5,3.5 Z"
       id="circle16" />
    <path
       style="fill:url(#linearGradient860);fill-opacity:1"
       d="M 5,11.5 A 1.5,1.5 0 0 1 3.5,13 1.5,1.5 0 0 1 2,11.5 1.5,1.5 0 0 1 3.5,10 1.5,1.5 0 0 1 5,11.5 Z"
       id="circle18" />
  </g>
  <g
     id="g898"
     transform="matrix(-1,0,0,1,0,1)"
     style="fill:#e9e9e9;fill-opacity:0.99215686">
    <rect
       id="rect886"
       y="2"
       x="-22"
       width="14.999998"
       ry="0.5"
       height="1"
       style="fill:#e9e9e9;fill-opacity:0.99215686" />
    <rect
       id="rect888"
       y="10"
       x="-22"
       width="15.000005"
       ry="0.39213601"
       height="1"
       style="fill:#e9e9e9;fill-opacity:0.99215686" />
    <rect
       id="rect890"
       y="18"
       x="-22"
       width="15.000001"
       ry="0.436441"
       height="1"
       style="fill:#e9e9e9;fill-opacity:0.99215686" />
    <rect
       id="rect892"
       y="21"
       x="-16"
       width="8.999999"
       ry="0.5"
       height="1"
       style="fill:#e9e9e9;fill-opacity:0.99215686" />
    <rect
       id="rect894"
       y="13"
       x="-16"
       width="8.999999"
       ry="0.5"
       height="1"
       style="fill:#e9e9e9;fill-opacity:0.99215686" />
    <rect
       id="rect896"
       y="5"
       x="-16"
       width="9.0000019"
       ry="0.5"
       height="1"
       style="fill:#e9e9e9;fill-opacity:0.99215686" />
  </g>
</svg>
